images/mobile-ag-logo.svg

<svg width="37" height="35" viewBox="0 0 37 35" fill="none" xmlns="http://www.w3.org/2000/svg">
<path fill-rule="evenodd" clip-rule="evenodd" d="M18.3567 34.3025L18.029 34.0444C17.2415 33.4361 15.9372 32.4698 15.4321 31.9329C13.387 29.7629 10.5466 26.6267 8.72169 22.1611C6.89805 17.6954 6.44344 13.2038 6.38516 10.2232C6.33335 7.6045 6.5626 5.53833 6.99131 3.03247L8.38624 4.04026C8.46136 4.09474 10.241 5.38788 12.457 7.74069C14.2263 9.61749 16.5745 12.506 18.3567 16.1428C20.1388 12.506 22.487 9.61749 24.2563 7.74069C26.4724 5.38917 28.252 4.09474 28.3271 4.04026L29.722 3.03247C30.1494 5.53833 30.38 7.6045 30.3282 10.2232C30.2699 13.2051 29.8153 17.6954 27.9916 22.1623C26.1667 26.628 23.3263 29.7642 21.2812 31.9342C20.7761 32.4711 19.4705 33.4374 18.6843 34.0457L18.3567 34.3025Z" fill="#019D8B"/>
<path fill-rule="evenodd" clip-rule="evenodd" d="M0.119158 11.9404L0 10.2232L1.59439 10.873C1.87415 10.9858 7.97582 13.5202 12.7383 19.1558C12.7305 18.8925 12.7253 18.6292 12.7253 18.362C12.7253 11.7355 14.8935 5.55777 18.3568 0C21.8202 5.55777 23.9883 11.7355 23.9883 18.362C23.9883 18.6292 23.9831 18.8925 23.9754 19.1558C28.7378 13.5202 34.8395 10.9871 35.1192 10.873L36.7136 10.2232L36.5945 11.9404C34.5157 42.6865 2.19795 42.6865 0.119158 11.9404Z" fill="url(#paint0_linear)"/>
<path fill-rule="evenodd" clip-rule="evenodd" d="M16.4682 27.5879C16.0304 27.5879 15.8542 27.7578 15.8542 28.1755C15.8542 29.1936 16.9785 30.0198 18.3592 30.0198C19.7398 30.0198 20.8602 29.1923 20.8602 28.1755C20.8602 27.7578 20.6827 27.5879 20.2463 27.5879C20.0144 27.5957 19.78 27.6203 19.5507 27.658L19.5287 27.6619C19.1428 27.7254 18.7477 27.7617 18.3579 27.7682C17.968 27.7617 17.5717 27.7254 17.1857 27.6619C16.9487 27.6216 16.7078 27.5957 16.4682 27.5879Z" fill="#019D8B"/>
<path d="M11.9679 27.7006C13.0802 27.7006 13.9819 26.7976 13.9819 25.6837C13.9819 24.5698 13.0802 23.6668 11.9679 23.6668C10.8556 23.6668 9.95386 24.5698 9.95386 25.6837C9.95386 26.7976 10.8556 27.7006 11.9679 27.7006Z" fill="#019D8B"/>
<path d="M24.7435 27.7006C25.8558 27.7006 26.7575 26.7976 26.7575 25.6837C26.7575 24.5698 25.8558 23.6668 24.7435 23.6668C23.6312 23.6668 22.7295 24.5698 22.7295 25.6837C22.7295 26.7976 23.6312 27.7006 24.7435 27.7006Z" fill="#019D8B"/>
<defs>
<linearGradient id="paint0_linear" x1="18.3568" y1="-3.5" x2="18.3568" y2="35" gradientUnits="userSpaceOnUse">
<stop stop-color="#00B59C"/>
<stop offset="1" stop-color="#8EF8AB"/>
</linearGradient>
</defs>
</svg>

<svg xmlns="http://www.w3.org/2000/svg" xmlns:xlink="http://www.w3.org/1999/xlink" width="37" height="35" fill="none" xmlns:v="https://vecta.io/nano"><g fill-rule="evenodd"><path d="M18.357 34.303l-.328-.258-2.597-2.112c-2.045-2.17-4.885-5.306-6.71-9.772s-2.278-8.957-2.337-11.938c-.052-2.619.177-4.685.606-7.191L8.386 4.04c.075.054 1.855 1.348 4.071 3.7 1.769 1.877 4.118 4.765 5.9 8.402 1.782-3.637 4.13-6.525 5.9-8.402 2.216-2.352 3.996-3.646 4.071-3.7l1.395-1.008c.427 2.506.658 4.572.606 7.191-.058 2.982-.513 7.472-2.337 11.939s-4.665 7.602-6.71 9.772c-.505.537-1.811 1.503-2.597 2.111l-.328.257z" fill="#019d8b"/><path d="M.119 11.94L0 10.223l1.594.65c.28.113 6.381 2.647 11.144 8.283l-.013-.794c0-6.626 2.168-12.804 5.631-18.362 3.463 5.558 5.631 11.736 5.631 18.362 0 .267-.005.531-.013.794 4.762-5.636 10.864-8.169 11.144-8.283l1.594-.65-.119 1.717c-2.079 30.746-34.397 30.746-36.475 0z" fill="url(#A)"/><path d="M16.468 27.588c-.438 0-.614.17-.614.588 0 1.018 1.124 1.844 2.505 1.844s2.501-.828 2.501-1.844c0-.418-.177-.588-.614-.588-.232.008-.466.032-.696.07l-.022.004c-.386.064-.781.1-1.171.106-.39-.006-.786-.043-1.172-.106-.237-.04-.478-.066-.718-.074z" fill="#019d8b"/></g><use xlink:href="#B" fill="#019d8b"/><use xlink:href="#B" x="12.776" fill="#019d8b"/><defs><linearGradient id="A" x1="18.357" y1="-3.5" x2="18.357" y2="35" gradientUnits="userSpaceOnUse"><stop stop-color="#00b59c"/><stop offset="1" stop-color="#8ef8ab"/></linearGradient><path id="B" d="M11.968 27.701c1.112 0 2.014-.903 2.014-2.017s-.902-2.017-2.014-2.017-2.014.903-2.014 2.017.902 2.017 2.014 2.017z"/></defs></svg>
